public/svg/card_icon_2.svg

<svg width="140" height="168" viewBox="0 0 140 168" fill="none" xmlns="http://www.w3.org/2000/svg">
<mask id="mask0" mask-type="alpha" maskUnits="userSpaceOnUse" x="0" y="0" width="140" height="168">
<path d="M0 8.00001C0 3.58173 3.58172 0 8 0H140V167.95H8C3.58172 167.95 0 164.369 0 159.95V8.00001Z" fill="#C4C4C4"/>
</mask>
<g mask="url(#mask0)">
<path d="M-27 -2.0498H145V169.95H-27V-2.0498Z" fill="#5C94C8"/>
<path d="M107.652 38.0304C110.934 47.5211 110.868 59.7447 108.405 65.7124C107.178 68.7055 107.085 72.0612 108.117 75.1194C109.372 78.8561 110.05 82.8532 110.05 87.0083C110.05 107.812 93.049 124.646 72.1807 124.367C52.4557 124.106 35.6402 107.337 35.3242 87.6125C35.2591 83.2529 35.9377 79.0514 37.2483 75.1473C38.2801 72.0798 38.215 68.7241 36.9788 65.7402C34.5062 59.7818 34.4411 47.5397 37.7224 38.0304C38.5683 36.3294 41.1245 36.8499 41.2454 38.7462L41.2826 39.3876C41.8682 48.4878 45.3261 53.842 50.2713 55.6918C51.0893 55.9986 52.0095 55.887 52.7439 55.4223C58.5164 51.7691 65.3485 49.6591 72.6826 49.6591C79.9982 49.6591 86.8211 51.7599 92.5843 55.3944C93.3372 55.8685 94.6107 55.9707 95.4008 55.5803C100.234 53.2192 103.516 48.2926 104.092 39.3783L104.129 38.7462C104.25 36.8499 106.806 36.3294 107.652 38.0304Z" fill="#F8F8F8"/>
<path d="M94.3343 80.0354L67.7764 131.626L67.6664 91.2959L48.4093 90.8492L75.109 39.415L75.1089 79.7098L94.3343 80.0354Z" fill="#FFC267"/>
<path d="M89.4279 147.2L83.7139 152.914L78 147.2L83.7139 141.486L89.4279 147.2Z" fill="#FFC267"/>
<path d="M119.5 153C116.462 153 114 150.538 114 147.5C114 144.463 116.462 142 119.5 142C122.538 142 125 144.463 125 147.5C125 150.538 122.538 153 119.5 153Z" fill="#1B2738"/>
<path d="M51.5721 18.8004L57.2861 13.0864L63 18.8004L57.2861 24.5143L51.5721 18.8004Z" fill="#FFC267"/>
<path d="M21.5 13C24.5376 13 27 15.4624 27 18.5C27 21.5376 24.5376 24 21.5 24C18.4624 24 16 21.5376 16 18.5C16 15.4624 18.4624 13 21.5 13Z" fill="#1B2738"/>
</g>
</svg>

<svg xmlns="http://www.w3.org/2000/svg" width="140" height="168" fill="none"  xmlns:v="https://vecta.io/nano"><mask id="A" mask-type="alpha" maskUnits="userSpaceOnUse" x="0" y="0" width="140" height="168"><path d="M0 8a8 8 0 0 1 8-8h132v167.95H8a8 8 0 0 1-8-8V8z" fill="#c4c4c4"/></mask><g mask="url(#A)"><path d="M-27-2.05h172v172H-27v-172z" fill="#5c94c8"/><path d="M107.652 38.03c3.282 9.491 3.216 21.714.753 27.682a13.49 13.49 0 0 0-.288 9.407 37.27 37.27 0 0 1 1.933 11.889c0 20.804-17.001 37.638-37.869 37.359-19.725-.261-36.54-17.03-36.857-36.755-.065-4.36.614-8.561 1.924-12.465 1.032-3.067.967-6.423-.27-9.407-2.473-5.958-2.538-18.2.744-27.71.846-1.701 3.402-1.181 3.523.716l.037.641c.586 9.1 4.043 14.454 8.989 16.304.818.307 1.738.195 2.473-.27 5.773-3.653 12.605-5.763 19.939-5.763a37.18 37.18 0 0 1 19.902 5.735c.753.474 2.026.576 2.817.186 4.833-2.361 8.115-7.288 8.691-16.202l.037-.632c.121-1.896 2.677-2.417 3.523-.716z" fill="#f8f8f8"/><path d="M94.334 80.035l-26.558 51.591-.11-40.33-19.257-.447 26.7-51.434V79.71l19.225.326zM89.428 147.2l-5.714 5.714L78 147.2l5.714-5.714 5.714 5.714z" fill="#ffc267"/><path d="M119.5 153a5.5 5.5 0 1 1 0-11 5.5 5.5 0 1 1 0 11z" fill="#1b2738"/><path d="M51.572 18.8l5.714-5.714L63 18.8l-5.714 5.714-5.714-5.714z" fill="#ffc267"/><path d="M21.5 13a5.5 5.5 0 1 1 0 11 5.5 5.5 0 1 1 0-11z" fill="#1b2738"/></g></svg>
